X:1
T:Title
%%score { 1 | 2 }
L:1/8
M:6/8
K:Ab
V:1 treble nm="Grand Piano"
V:2 bass 
V:1
 z3 z2[Q:1/4=90] [CE] | [CA]>[CA][CA] [CA][B,G][CA] | BAG [CA]2 [CA] | %3
 [Ec]>[DB][CA] [CEA][B,EG][A,EA] |[M:5/8] B-B- B3 |[M:1/8] E/E/ | %6
[M:3/4] [CA]>[CA] [CA][Ec] [DB][Ec] | [Fd]>F F F2 F/F/ | E>E EE FG |[M:5/8] [CA]-[CA]- [CA]3 | %10
[M:1/8] E/E/ |[M:3/4] B>B BB AB |[M:5/8] c-c- c3 |[M:1/8] E/E/ |[M:3/4] B>B BB AB | %15
[M:5/8] c-c- c3 |[M:1/8] E/E/ |[M:3/4] [CA]>[CA] [CA][Ec] [DB][Ec] | [Fd]>F F F2 F/F/ | E>E EE FG | %20
[M:13/8] [CA]-[CA]- [CA]3 z z z z z z z2 |] %21
V:2
 z3 z2 [A,,A,] | [A,,E,]>[A,,E,][A,,E,] [A,,E,][A,,E,][A,,A,] | %2
 [E,G,D][E,A,C][E,B,D] [A,,A,]2 [A,,E,] | [A,,A,]>[A,,A,][A,,A,] A,,B,,C, | %4
[M:5/8] [E,G,E]-[E,G,E]- [E,G,E]3 |[M:1/8] E, | %6
[M:3/4] [A,,E,]>[A,,E,] [A,,E,][A,,A,] [A,,A,][A,,A,] | %7
 [D,A,]>[D,A,D] [D,A,D] [D,A,D]2 [D,A,D]/[D,A,D]/ | [E,A,C]>[E,A,C] [E,A,C][E,G,D] [E,A,D][E,B,D] | %9
[M:5/8] [A,,A,]-[A,,A,]- [A,,A,]3 |[M:1/8] [A,C]/[A,C]/ | %11
[M:3/4] [E,G,E]>[E,G,E] [E,G,E][E,G,E] [E,F,E][E,G,E] |[M:5/8] [A,E]-[A,E]- [A,E]3 | %13
[M:1/8] [A,C]/[A,C]/ |[M:3/4] [E,G,E]>[E,G,E] [E,G,E][E,G,E] [E,F,E][E,G,E] | %15
[M:5/8] [A,E]-[A,E]- [A,E]3 |[M:1/8] E, |[M:3/4] [A,,E,]>[A,,E,] [A,,E,][A,,A,] [A,,A,][A,,A,] | %18
 [D,A,]>[D,A,D] [D,A,D] [D,A,D]2 [D,A,D]/[D,A,D]/ | [E,A,C]>[E,A,C] [E,A,C][E,G,D] [E,A,D][E,B,D] | %20
[M:13/8] [A,,A,]-[A,,A,]- [A,,A,]3 z z z z z z z2 |] %21

